chrome/img/svgs/feedback-icon.svg

<?xml version="1.0" encoding="UTF-8"?>
<svg width="230px" height="228px" viewBox="0 0 230 228" version="1.1" xmlns="http://www.w3.org/2000/svg" xmlns:xlink="http://www.w3.org/1999/xlink">
    <!-- Generator: Sketch 42 (36781) - http://www.bohemiancoding.com/sketch -->
    <title>Shape</title>
    <desc>Created with Sketch.</desc>
    <defs>
        <radialGradient cx="50%" cy="0%" fx="50%" fy="0%" r="233.931224%" id="radialGradient-1">
            <stop stop-color="#FFFFFF" offset="0%"></stop>
            <stop stop-color="#FAFAFA" offset="9.21513762%"></stop>
            <stop stop-color="#FAFAFA" offset="9.21513762%"></stop>
            <stop stop-color="#FFFFFF" offset="23.3723474%"></stop>
            <stop stop-color="#31A217" offset="100%"></stop>
        </radialGradient>
        <path d="M221.549948,195.560788 C217.733243,191.082369 214.931808,187.488053 212.683551,181.061043 C208.029304,163.710788 213.472219,143.826252 213.472219,143.826252 L213.441116,143.846294 C217.011224,133.12793 218.975116,121.672442 218.975116,109.749291 C218.975116,50.2382068 170.844203,2 111.487558,2 C52.1309126,2.00222696 4,50.2404338 4,109.751518 C4,155.805076 32.8385588,195.088672 73.3849371,210.505924 L73.3649427,210.508151 C73.3649427,210.508151 73.6182048,210.610592 74.0802971,210.782068 C79.3943586,212.759609 84.9083639,214.322936 90.5823243,215.445324 C112.549482,220.411448 154.884246,226.04566 213.825453,216.14459 C228.470224,213.628124 228.747924,204.012106 221.549948,195.560788 Z M130.83323,134.078843 L90.8644672,134.078843 C86.9522338,134.078843 83.782014,130.898742 83.782014,126.977063 C83.782014,123.055385 86.9544554,119.877511 90.8644672,119.877511 L130.83323,119.877511 C134.747685,119.877511 137.915683,123.055385 137.915683,126.977063 C137.915683,130.898742 134.747685,134.078843 130.83323,134.078843 Z M147.963969,106.001316 L90.8644672,106.001316 C86.9522338,106.001316 83.782014,102.823442 83.782014,98.9017633 C83.782014,94.9800846 86.9544554,91.8022109 90.8644672,91.8022109 L147.963969,91.8022109 C151.878424,91.8022109 155.046423,94.9823115 155.046423,98.9017633 C155.046423,102.823442 151.876203,106.001316 147.963969,106.001316 Z" id="path-2"></path>
        <filter x="-50%" y="-50%" width="200%" height="200%" filterUnits="objectBoundingBox" id="filter-3">
            <feOffset dx="0" dy="2" in="SourceAlpha" result="shadowOffsetOuter1"></feOffset>
            <feGaussianBlur stdDeviation="2" in="shadowOffsetOuter1" result="shadowBlurOuter1"></feGaussianBlur>
            <feColorMatrix values="0 0 0 0 0   0 0 0 0 0   0 0 0 0 0  0 0 0 0.5 0" type="matrix" in="shadowBlurOuter1"></feColorMatrix>
        </filter>
    </defs>
    <g id="Playground" stroke="none" stroke-width="1" fill="none" fill-rule="evenodd">
        <g id="Shape" fill-rule="nonzero">
            <use fill="black" fill-opacity="1" filter="url(#filter-3)" xlink:href="#path-2"></use>
            <use fill="url(#radialGradient-1)" fill-rule="evenodd" xlink:href="#path-2"></use>
        </g>
    </g>
</svg>

<svg width="230" height="228" viewBox="0 0 230 228" xmlns="http://www.w3.org/2000/svg" xmlns:xlink="http://www.w3.org/1999/xlink"><title>Shape</title><defs><radialGradient cy="0%" fx="50%" fy="0%" r="233.931%" id="c"><stop stop-color="#FFF" offset="0%"/><stop stop-color="#FAFAFA" offset="9.215%"/><stop stop-color="#FAFAFA" offset="9.215%"/><stop stop-color="#FFF" offset="23.372%"/><stop stop-color="#31A217" offset="100%"/></radialGradient><path d="M221.55 195.56c-3.817-4.478-6.618-8.072-8.866-14.499-4.655-17.35.788-37.235.788-37.235l-.03.02a107.684 107.684 0 0 0 5.533-34.097C218.975 50.24 170.845 2 111.488 2 52.13 2.002 4 50.24 4 109.752c0 46.053 28.839 85.337 69.385 100.754l-.02.002s.253.103.715.274a106.622 106.622 0 0 0 16.502 4.663c21.967 4.966 64.302 10.6 123.243.7 14.645-2.517 14.923-12.133 7.725-20.584zm-90.717-61.481H90.864c-3.912 0-7.082-3.18-7.082-7.102s3.172-7.1 7.082-7.1h39.97c3.914 0 7.082 3.178 7.082 7.1 0 3.922-3.168 7.102-7.083 7.102zM147.964 106h-57.1c-3.912 0-7.082-3.178-7.082-7.1 0-3.92 3.172-7.099 7.082-7.099h57.1c3.914 0 7.082 3.18 7.082 7.1 0 3.921-3.17 7.1-7.082 7.1z" id="b"/><filter x="-50%" y="-50%" width="200%" height="200%" filterUnits="objectBoundingBox" id="a"><feOffset dy="2" in="SourceAlpha" result="shadowOffsetOuter1"/><feGaussianBlur stdDeviation="2" in="shadowOffsetOuter1" result="shadowBlurOuter1"/><feColorMatrix values="0 0 0 0 0 0 0 0 0 0 0 0 0 0 0 0 0 0 0.5 0" in="shadowBlurOuter1"/></filter></defs><g fill-rule="nonzero" fill="none"><use fill="#000" filter="url(#a)" xlink:href="#b"/><use fill="url(#c)" fill-rule="evenodd" xlink:href="#b"/></g></svg>
